X:8
T:Mazurka
C:Gilles Chabenat
Z:Dave Holland <dave@biff.org.uk>
S:St Chartier festival 2002
R:Mazurka
Q:1/4=160
M:3/4
L:1/8
K:Am
A BA|e2 ef ga|e3 e fe|d2 ed cB|c2 B2 A2|
e2 ef ga|e3 e fe|1 d2 ed cd|B3:|2 d2 ed cB|A4||
ag|f2 fe fg|a4 gf|e2 ed ef|e2 c2 ag|
f2 fe fg|a4 gf|e2 dc Bc|1B4:|2A3|]
